src/lib/packages/icons/src/assets/line/atom.svg

<svg width="24" height="24" viewBox="0 0 24 24" fill="none" xmlns="http://www.w3.org/2000/svg">
<path d="M19.4771 12C20.1391 10.979 20.6832 9.96003 21.0692 8.97803C22.0662 6.44703 21.9641 4.40099 20.7811 3.21899C19.5981 2.03599 17.554 1.93405 15.022 2.93005C14.04 3.31705 13.0201 3.86095 12.0001 4.52295C10.9791 3.86095 9.9601 3.31705 8.9781 2.93005C6.4501 1.93405 4.40406 2.03499 3.21906 3.21899C2.03606 4.40099 1.93398 6.44703 2.93098 8.97803C3.31798 9.96003 3.86202 10.98 4.52302 12C3.86102 13.021 3.31698 14.04 2.93098 15.022C1.93398 17.553 2.03606 19.599 3.21906 20.781C3.86406 21.425 4.76296 21.749 5.85896 21.749C6.77396 21.749 7.8261 21.523 8.9781 21.069C9.9601 20.682 10.9801 20.138 12.0001 19.476C13.0211 20.138 14.04 20.682 15.022 21.069C16.174 21.523 17.2262 21.749 18.1412 21.749C19.2362 21.749 20.1361 21.425 20.7811 20.781C21.9641 19.598 22.0662 17.553 21.0692 15.022C20.6832 14.04 20.1391 13.021 19.4771 12ZM15.5721 4.32605C16.5491 3.94105 17.422 3.74805 18.137 3.74805C18.824 3.74805 19.366 3.92505 19.72 4.27905C20.444 5.00305 20.4272 6.515 19.6732 8.427C19.3872 9.154 19.002 9.90604 18.544 10.665C17.827 9.71604 17.014 8.777 16.117 7.88C15.22 6.98301 14.2821 6.17 13.3331 5.453C14.0931 4.997 14.8451 4.61305 15.5721 4.32605ZM8.94197 8.94202C9.92797 7.95602 10.9621 7.08204 12.0001 6.33704C13.0381 7.08204 14.0722 7.95602 15.0582 8.94202C16.0442 9.92802 16.9191 10.962 17.6641 12C16.9191 13.038 16.0442 14.072 15.0582 15.058C14.0722 16.044 13.0381 16.918 12.0001 17.663C10.9621 16.918 9.92797 16.044 8.94197 15.058C7.95597 14.072 7.08101 13.038 6.33601 12C7.08201 10.962 7.95597 9.92802 8.94197 8.94202ZM4.326 8.42798C3.572 6.51498 3.55512 5.00303 4.27912 4.28003C4.63312 3.92603 5.17513 3.74902 5.86213 3.74902C6.57813 3.74902 7.45107 3.94203 8.42707 4.32703C9.15407 4.61303 9.90611 4.99805 10.6651 5.45605C9.71611 6.17305 8.77817 6.98506 7.88117 7.88306C6.98417 8.78006 6.17117 9.71797 5.45417 10.668C4.99717 9.90697 4.613 9.15498 4.326 8.42798ZM8.42805 19.674C6.51605 20.427 5.0031 20.4449 4.2801 19.7209C3.5561 18.9969 3.57297 17.485 4.32697 15.572C4.61297 14.845 4.99813 14.093 5.45613 13.334C6.17313 14.283 6.98613 15.222 7.88313 16.119C8.78013 17.016 9.71806 17.829 10.6671 18.545C9.90706 19.003 9.15505 19.3869 8.42805 19.674ZM19.721 19.7209C18.997 20.4449 17.4861 20.4279 15.5731 19.674C14.8461 19.388 14.0941 19.003 13.3341 18.545C14.2831 17.828 15.221 17.016 16.118 16.119C17.015 15.222 17.828 14.284 18.545 13.334C19.003 14.093 19.3881 14.845 19.6741 15.572C20.4281 17.485 20.444 18.9979 19.721 19.7209ZM10.765 12C10.765 11.31 11.3201 10.75 12.0101 10.75H12.0201C12.7101 10.75 13.2701 11.31 13.2701 12C13.2701 12.69 12.7101 13.25 12.0201 13.25C11.3301 13.25 10.765 12.69 10.765 12Z" fill="currentColor"/>
</svg>

<svg xmlns="http://www.w3.org/2000/svg" width="24" height="24" fill="none"><path fill="currentColor" d="M19.477 12c.662-1.021 1.206-2.04 1.592-3.022.997-2.531.895-4.577-.288-5.759-1.183-1.183-3.227-1.285-5.759-.289-.982.387-2.002.93-3.022 1.593-1.02-.662-2.04-1.206-3.022-1.593-2.528-.996-4.574-.895-5.759.289-1.183 1.182-1.285 3.228-.288 5.759.387.982.931 2.002 1.592 3.022-.662 1.021-1.206 2.04-1.592 3.022-.997 2.531-.895 4.577.288 5.759.645.644 1.544.968 2.64.968.915 0 1.967-.226 3.12-.68.981-.387 2.001-.931 3.021-1.593 1.021.662 2.04 1.206 3.022 1.593 1.152.454 2.204.68 3.12.68 1.094 0 1.994-.324 2.64-.968 1.182-1.183 1.284-3.228.287-5.759-.386-.982-.93-2.001-1.592-3.022Zm-3.905-7.674c.977-.385 1.85-.578 2.565-.578.687 0 1.229.177 1.583.531.724.724.707 2.236-.047 4.148a15.062 15.062 0 0 1-1.129 2.238 26.808 26.808 0 0 0-2.427-2.785 26.796 26.796 0 0 0-2.784-2.427c.76-.456 1.512-.84 2.24-1.127Zm-6.63 4.616c.986-.986 2.02-1.86 3.058-2.605a24.798 24.798 0 0 1 3.058 2.605c.986.986 1.861 2.02 2.606 3.058a24.807 24.807 0 0 1-2.606 3.058c-.986.986-2.02 1.86-3.058 2.605a24.798 24.798 0 0 1-3.058-2.605A24.807 24.807 0 0 1 6.336 12a24.894 24.894 0 0 1 2.606-3.058Zm-4.616-.514c-.754-1.913-.77-3.425-.047-4.148.354-.354.896-.531 1.583-.531.716 0 1.59.193 2.565.578.727.286 1.48.671 2.238 1.13a26.678 26.678 0 0 0-2.784 2.426 26.698 26.698 0 0 0-2.427 2.785 15.369 15.369 0 0 1-1.128-2.24Zm4.102 11.246c-1.912.753-3.425.77-4.148.047-.724-.724-.707-2.236.047-4.149.286-.727.671-1.479 1.13-2.238.716.949 1.53 1.888 2.426 2.785a26.66 26.66 0 0 0 2.784 2.426 15.23 15.23 0 0 1-2.239 1.129Zm11.293.047c-.724.724-2.235.707-4.148-.047a15.12 15.12 0 0 1-2.239-1.129 26.782 26.782 0 0 0 2.784-2.426 26.701 26.701 0 0 0 2.427-2.785c.458.759.843 1.511 1.13 2.238.753 1.913.769 3.426.046 4.149ZM10.765 12c0-.69.555-1.25 1.245-1.25h.01a1.25 1.25 0 0 1 0 2.5c-.69 0-1.255-.56-1.255-1.25Z"/></svg>
